X:1
T:Waldorf, 87.87.87
T:Waldorf, 87.87.87
T:13th Century Melody
T:Public Domain Courtesy of the Cyber Hymnal™
C:13th Century Melody
Z:Public Domain
Z:Courtesy of the Cyber Hymnal™
%%score ( 1 2 ) 3
L:1/8
Q:1/2=110
M:2/2
K:Bb
V:1 treble 
V:2 treble 
V:3 bass 
V:1
 G4 [Bd]4 | [Bd]8- | [Bd]4 [Ge]4 | [Bd]4 [Gc]4 | [^Fd]4 [Fd]4 | [GB]4 [Ac]4 | [GB]4 [Ac]4 | %7
 [GB]4 [Gc]4 | [^Fd]8- | [Fd]8 | G4 [Bd]4 | [Bd]8- | [Bd]4 [Ee]4 | [Bd]4 [Gc]4 | [^Fd]4 [Fd]4 | %15
 [GB]4 [Ac]4 | [GB]4 [Ac]4 | [GB]4 [Gc]4 | [^Fd]8 | G8- | G4 F4 | G4 [FB]4 | [Ac]8- x8 | %23
 [Ac]4 [DB]4 | [DB]4 [DB]4 | [Ac]8- | [Ac]4 [GB]4 | [^FA]4 G4 | [DB]4 [EA]4 | [EG]4 ^F4 | [B,G]8 |] %31
V:2
 G4 x4 | x8 | x8 | x8 | x8 | x8 | x8 | x8 | x8 | x8 | G4 x4 | x8 | x8 | x8 | x8 | x8 | x8 | x8 | %18
 x8 | G8- | G4 F4 | G4 x4 | x16 | x8 | x8 | x8 | x8 | x4 G4 | x8 | x4 ^D2 C2 | x8 |] %31
V:3
 G,4 G,4 | G,8- | G,4 C,4 | G,4 E,4 | D,4 D,4 | G,4 F,4 | G,4 F,4 | G,4 E,4 | D,8- | D,8 | %10
 G,4 G,4 | G,8- | G,4 C,4 | G,4 E,4 | D,4 D,4 | G,4 F,4 | G,4 F,4 | G,4 E,4 | D,8 | G,8- | %20
 G,4 F,4 | E,4 D,4 | F,8- F,4 B,,4 | B,,4 B,,4 | F,8- | F,4 G,4 | D,4 E,4 | G,,4 C,4 | C,4 D,4 | %29
 G,,8 | x8 |] %31

